SVG_Azure_Grouped/Dynamics 365/Application SCM Warehousing.svg

<?xml version="1.0" encoding="UTF-8" standalone="no"?>
<!-- Generated by Microsoft Visio, SVG Export Application SCM Warehousing.svg Page-1 -->

<svg
   xmlns:dc="http://purl.org/dc/elements/1.1/"
   xmlns:cc="http://creativecommons.org/ns#"
   xmlns:rdf="http://www.w3.org/1999/02/22-rdf-syntax-ns#"
   xmlns:svg="http://www.w3.org/2000/svg"
   xmlns="http://www.w3.org/2000/svg"
   xmlns:sodipodi="http://sodipodi.sourceforge.net/DTD/sodipodi-0.dtd"
   xmlns:inkscape="http://www.inkscape.org/namespaces/inkscape"
   width="0.78061146in"
   height="0.74803334in"
   viewBox="0 0 56.204023 53.858194"
   xml:space="preserve"
   class="st10"
   version="1.1"
   id="svg78"
   sodipodi:docname="Application SCM Warehousing.svg"
   style="font-size:12px;overflow:visible;color-interpolation-filters:sRGB;fill:none;fill-rule:evenodd;stroke-linecap:square;stroke-miterlimit:3"
   inkscape:version="0.92.5 (2060ec1f9f, 2020-04-08)"><metadata
   id="metadata82"><rdf:RDF><cc:Work
       rdf:about=""><dc:format>image/svg+xml</dc:format><dc:type
         rdf:resource="http://purl.org/dc/dcmitype/StillImage" /></cc:Work></rdf:RDF></metadata><sodipodi:namedview
   pagecolor="#ffffff"
   bordercolor="#666666"
   borderopacity="1"
   objecttolerance="10"
   gridtolerance="10"
   guidetolerance="10"
   inkscape:pageopacity="0"
   inkscape:pageshadow="2"
   inkscape:window-width="640"
   inkscape:window-height="480"
   id="namedview80"
   showgrid="false"
   inkscape:zoom="1.8979166"
   inkscape:cx="37.470818"
   inkscape:cy="16.819201"
   inkscape:window-x="0"
   inkscape:window-y="0"
   inkscape:window-maximized="0"
   inkscape:current-layer="svg78" />
	<style
   type="text/css"
   id="style2">
	<![CDATA[
		.st1 {fill:#0fb1f1;stroke:none;stroke-linecap:butt;stroke-width:0.75}
		.st2 {fill:#27518a;stroke:none;stroke-linecap:butt;stroke-width:0.75}
		.st3 {fill:#0095e6;stroke:none;stroke-linecap:butt;stroke-width:0.75}
		.st4 {fill:#2064ae;stroke:none;stroke-linecap:butt;stroke-width:0.75}
		.st5 {fill:#0078d4;stroke:none;stroke-linecap:butt;stroke-width:0.75}
		.st6 {fill:#000000;fill-opacity:0.32;stroke:none;stroke-linecap:butt;stroke-width:0.75}
		.st7 {fill:#000000;fill-opacity:0.24;stroke:none;stroke-linecap:butt;stroke-width:0.75}
		.st8 {fill:url(#grad0-23);stroke:none;stroke-linecap:butt;stroke-width:0.75}
		.st9 {fill:url(#grad0-27);stroke:none;stroke-linecap:butt;stroke-width:0.75}
		.st10 {fill:none;fill-rule:evenodd;font-size:12px;overflow:visible;stroke-linecap:square;stroke-miterlimit:3}
	]]>
	</style>

	<defs
   id="Patterns_And_Gradients">
		<linearGradient
   id="grad0-23"
   x1="0.20341047"
   y1="64.590191"
   x2="47.183533"
   y2="64.590191"
   gradientTransform="scale(1.1963362,0.83588543)"
   gradientUnits="userSpaceOnUse">
			<stop
   offset="0"
   stop-color="#d3f9ff"
   stop-opacity="1"
   id="stop4" />
			<stop
   offset="1"
   stop-color="#80e5fc"
   stop-opacity="1"
   id="stop6" />
		</linearGradient>
		<linearGradient
   id="grad0-27"
   x1="0"
   y1="80.126187"
   x2="34.466179"
   y2="80.126187"
   gradientTransform="scale(1.2287408,0.8138413)"
   gradientUnits="userSpaceOnUse">
			<stop
   offset="0"
   stop-color="#7cecff"
   stop-opacity="1"
   id="stop9" />
			<stop
   offset="1"
   stop-color="#00b1f2"
   stop-opacity="1"
   id="stop11" />
		</linearGradient>
	</defs>
	<g
   id="g76"
   transform="translate(-5.9126373,-5.3860778)">
		<title
   id="title15">Page-1</title>
		<g
   id="group21188-1"
   transform="translate(5.66929,-34.0157)">
			<title
   id="title17">Application SCM Warehousing.21188</title>
			<g
   id="group21189-2">
				<title
   id="title19">Sheet.21189</title>
				<g
   id="group21190-3">
					<title
   id="title21">Sheet.21190</title>
					<g
   id="shape21191-4"
   transform="translate(42.4612,-25.8071)">
						<title
   id="title23">Sheet.21191</title>
						<path
   d="M 7.06,67.45 C 7.06,66.21 6,65.21 4.71,65.21 H 0 v 25.81 c 0,1.24 1.05,2.24 2.35,2.24 h 2.36 c 1.29,0 2.35,-1 2.35,-2.24 z"
   class="st1"
   id="path25"
   inkscape:connector-curvature="0"
   style="fill:#0fb1f1;stroke:none;stroke-width:0.75;stroke-linecap:butt" />
					</g>
					<g
   id="shape21192-6"
   transform="translate(7.17006,-25.8071)">
						<title
   id="title28">Sheet.21192</title>
						<path
   d="m 0,67.45 c 0,-1.24 1.05,-2.24 2.35,-2.24 h 4.71 v 25.81 c 0,1.24 -1.06,2.24 -2.35,2.24 H 2.35 C 1.05,93.26 0,92.26 0,91.02 Z"
   class="st2"
   id="path30"
   inkscape:connector-curvature="0"
   style="fill:#27518a;stroke:none;stroke-width:0.75;stroke-linecap:butt" />
					</g>
					<g
   id="shape21193-8"
   transform="matrix(-1,0,0,1,42.4612,-31.4173)">
						<title
   id="title33">Sheet.21193</title>
						<rect
   x="0"
   y="70.818901"
   width="7.0582199"
   height="22.440901"
   class="st3"
   id="rect35"
   style="fill:#0095e6;stroke:none;stroke-width:0.75;stroke-linecap:butt" />
					</g>
					<g
   id="shape21194-10"
   transform="matrix(-1,0,0,1,25.992,-31.4173)">
						<title
   id="title38">Sheet.21194</title>
						<rect
   x="0"
   y="70.818901"
   width="5.8818498"
   height="22.440901"
   class="st4"
   id="rect40"
   style="fill:#2064ae;stroke:none;stroke-width:0.75;stroke-linecap:butt" />
					</g>
					<g
   id="shape21195-12"
   transform="matrix(-1,0,0,1,35.403,-31.4173)">
						<title
   id="title43">Sheet.21195</title>
						<rect
   x="0"
   y="70.818901"
   width="9.4109602"
   height="22.440901"
   class="st5"
   id="rect45"
   style="fill:#0078d4;stroke:none;stroke-width:0.75;stroke-linecap:butt" />
					</g>
					<g
   id="shape21196-14"
   transform="matrix(-1,0,0,1,20.1101,-31.4173)">
						<title
   id="title48">Sheet.21196</title>
						<rect
   x="0"
   y="70.818901"
   width="5.8818498"
   height="22.440901"
   class="st5"
   id="rect50"
   style="fill:#0078d4;stroke:none;stroke-width:0.75;stroke-linecap:butt" />
					</g>
					<g
   id="shape21197-16"
   transform="translate(0,-1.12205)">
						<title
   id="title53">Sheet.21197</title>
						<path
   d="M 0.64,66.51 C 0,65.6 0.14,64.37 1.02,63.66 c 7.69,-6.23 17.82,-9.67 27.91,-9.67 10.1,0 19.19,3.43 26.75,9.66 0.87,0.72 1.01,1.95 0.37,2.86 l -18.1,25.64 c -0.49,0.69 -1.31,1.11 -2.19,1.11 H 20.77 c -0.78,0 -1.51,-0.37 -1.95,-0.99 z"
   class="st6"
   id="path55"
   inkscape:connector-curvature="0"
   style="fill:#000000;fill-opacity:0.31999996;stroke:none;stroke-width:0.75;stroke-linecap:butt" />
					</g>
					<g
   id="shape21198-18"
   transform="translate(0,-0.213189)">
						<title
   id="title58">Sheet.21198</title>
						<path
   d="M 0.64,66.51 C 0,65.6 0.14,64.37 1.02,63.66 c 7.69,-6.23 17.82,-9.67 27.91,-9.67 10.1,0 19.19,3.43 26.75,9.66 0.87,0.72 1.01,1.95 0.37,2.86 l -18.1,25.64 c -0.49,0.69 -1.31,1.11 -2.19,1.11 H 20.77 c -0.78,0 -1.51,-0.37 -1.95,-0.99 z"
   class="st7"
   id="path60"
   inkscape:connector-curvature="0"
   style="fill:#000000;fill-opacity:0.23999999;stroke:none;stroke-width:0.75;stroke-linecap:butt" />
					</g>
					<g
   id="shape21199-20">
						<title
   id="title63">Sheet.21199</title>
						<path
   d="M 0.64,66.51 C 0,65.6 0.14,64.37 1.02,63.66 c 7.69,-6.23 17.82,-9.67 27.91,-9.67 10.1,0 19.19,3.43 26.75,9.66 0.87,0.72 1.01,1.95 0.37,2.86 l -18.1,25.64 c -0.49,0.69 -1.31,1.11 -2.19,1.11 H 20.77 c -0.78,0 -1.51,-0.37 -1.95,-0.99 z"
   class="st8"
   id="path65"
   inkscape:connector-curvature="0"
   style="fill:url(#grad0-23);stroke:none;stroke-width:0.75;stroke-linecap:butt" />
					</g>
					<g
   id="shape21200-24"
   transform="translate(7.17006,-22.4409)">
						<title
   id="title68">Sheet.21200</title>
						<path
   d="m 2.35,65.21 c -1.3,0 -2.35,1 -2.35,2.24 v 23.57 c 0,1.24 1.05,2.24 2.35,2.24 h 2.36 c 1.29,0 2.35,-1 2.35,-2.24 v -3.37 h 28.23 v 3.37 c 0,1.24 1.05,2.24 2.35,2.24 H 40 c 1.3,0 2.35,-1 2.35,-2.24 V 67.45 c 0,-1.24 -1.05,-2.24 -2.35,-2.24 z"
   class="st9"
   id="path70"
   inkscape:connector-curvature="0"
   style="fill:url(#grad0-27);stroke:none;stroke-width:0.75;stroke-linecap:butt" />
					</g>
				</g>
			</g>
		</g>
	</g>
</svg>

<?xml version="1.0" encoding="UTF-8" standalone="no"?>
<!DOCTYPE svg PUBLIC "-//W3C//DTD SVG 1.1//EN" "http://www.w3.org/Graphics/SVG/1.1/DTD/svg11.dtd">
<!-- Generated by Microsoft Visio, SVG Export Application SCM Warehousing.svg Page-1 -->
<svg xmlns="http://www.w3.org/2000/svg" xmlns:xlink="http://www.w3.org/1999/xlink" xmlns:ev="http://www.w3.org/2001/xml-events"
		width="0.944882in" height="1.29528in" viewBox="0 0 68.0315 93.2598" xml:space="preserve" color-interpolation-filters="sRGB"
		class="st10">
	<style type="text/css">
	<![CDATA[
		.st1 {fill:#0fb1f1;stroke:none;stroke-linecap:butt;stroke-width:0.75}
		.st2 {fill:#27518a;stroke:none;stroke-linecap:butt;stroke-width:0.75}
		.st3 {fill:#0095e6;stroke:none;stroke-linecap:butt;stroke-width:0.75}
		.st4 {fill:#2064ae;stroke:none;stroke-linecap:butt;stroke-width:0.75}
		.st5 {fill:#0078d4;stroke:none;stroke-linecap:butt;stroke-width:0.75}
		.st6 {fill:#000000;fill-opacity:0.32;stroke:none;stroke-linecap:butt;stroke-width:0.75}
		.st7 {fill:#000000;fill-opacity:0.24;stroke:none;stroke-linecap:butt;stroke-width:0.75}
		.st8 {fill:url(#grad0-23);stroke:none;stroke-linecap:butt;stroke-width:0.75}
		.st9 {fill:url(#grad0-27);stroke:none;stroke-linecap:butt;stroke-width:0.75}
		.st10 {fill:none;fill-rule:evenodd;font-size:12px;overflow:visible;stroke-linecap:square;stroke-miterlimit:3}
	]]>
	</style>

	<defs id="Patterns_And_Gradients">
		<linearGradient id="grad0-23" x1="0" y1="0" x2="1" y2="0" gradientTransform="rotate(74.858469585638 0.5 0.5)">
			<stop offset="0" stop-color="#d3f9ff" stop-opacity="1"/>
			<stop offset="1" stop-color="#80e5fc" stop-opacity="1"/>
		</linearGradient>
		<linearGradient id="grad0-27" x1="0" y1="0" x2="1" y2="0" gradientTransform="rotate(73.790458640948 0.5 0.5)">
			<stop offset="0" stop-color="#7cecff" stop-opacity="1"/>
			<stop offset="1" stop-color="#00b1f2" stop-opacity="1"/>
		</linearGradient>
	</defs>
	<g>
		<title>Page-1</title>
		<g id="group20713-1" transform="translate(5.66929,-34.0157)">
			<title>Application SCM Warehousing.20713</title>
			<g id="group20714-2">
				<title>Sheet.20714</title>
				<g id="group20715-3">
					<title>Sheet.20715</title>
					<g id="shape20716-4" transform="translate(42.4612,-25.8071)">
						<title>Sheet.20716</title>
						<path d="M7.06 67.45 C7.06 66.21 6 65.21 4.71 65.21 L0 65.21 L0 91.02 C0 92.26 1.05 93.26 2.35 93.26 L4.71
									 93.26 C6 93.26 7.06 92.26 7.06 91.02 L7.06 67.45 Z" class="st1"/>
					</g>
					<g id="shape20717-6" transform="translate(7.17006,-25.8071)">
						<title>Sheet.20717</title>
						<path d="M0 67.45 C0 66.21 1.05 65.21 2.35 65.21 L7.06 65.21 L7.06 91.02 C7.06 92.26 6 93.26 4.71 93.26 L2.35
									 93.26 C1.05 93.26 0 92.26 0 91.02 L0 67.45 Z" class="st2"/>
					</g>
					<g id="shape20718-8" transform="translate(42.4612,-31.4173) scale(-1,1)">
						<title>Sheet.20718</title>
						<rect x="0" y="70.8189" width="7.05822" height="22.4409" class="st3"/>
					</g>
					<g id="shape20719-10" transform="translate(25.992,-31.4173) scale(-1,1)">
						<title>Sheet.20719</title>
						<rect x="0" y="70.8189" width="5.88185" height="22.4409" class="st4"/>
					</g>
					<g id="shape20720-12" transform="translate(35.403,-31.4173) scale(-1,1)">
						<title>Sheet.20720</title>
						<rect x="0" y="70.8189" width="9.41096" height="22.4409" class="st5"/>
					</g>
					<g id="shape20721-14" transform="translate(20.1101,-31.4173) scale(-1,1)">
						<title>Sheet.20721</title>
						<rect x="0" y="70.8189" width="5.88185" height="22.4409" class="st5"/>
					</g>
					<g id="shape20722-16" transform="translate(0,-1.12205)">
						<title>Sheet.20722</title>
						<path d="M0.64 66.51 C0 65.6 0.14 64.37 1.02 63.66 C8.71 57.43 18.84 53.99 28.93 53.99 C39.03 53.99 48.12
									 57.42 55.68 63.65 C56.55 64.37 56.69 65.6 56.05 66.51 L37.95 92.15 C37.46 92.84 36.64 93.26
									 35.76 93.26 L20.77 93.26 C19.99 93.26 19.26 92.89 18.82 92.27 L0.64 66.51 Z" class="st6"/>
					</g>
					<g id="shape20723-18" transform="translate(0,-0.213189)">
						<title>Sheet.20723</title>
						<path d="M0.64 66.51 C0 65.6 0.14 64.37 1.02 63.66 C8.71 57.43 18.84 53.99 28.93 53.99 C39.03 53.99 48.12
									 57.42 55.68 63.65 C56.55 64.37 56.69 65.6 56.05 66.51 L37.95 92.15 C37.46 92.84 36.64 93.26
									 35.76 93.26 L20.77 93.26 C19.99 93.26 19.26 92.89 18.82 92.27 L0.64 66.51 Z" class="st7"/>
					</g>
					<g id="shape20724-20">
						<title>Sheet.20724</title>
						<path d="M0.64 66.51 C0 65.6 0.14 64.37 1.02 63.66 C8.71 57.43 18.84 53.99 28.93 53.99 C39.03 53.99 48.12
									 57.42 55.68 63.65 C56.55 64.37 56.69 65.6 56.05 66.51 L37.95 92.15 C37.46 92.84 36.64 93.26
									 35.76 93.26 L20.77 93.26 C19.99 93.26 19.26 92.89 18.82 92.27 L0.64 66.51 Z" class="st8"/>
					</g>
					<g id="shape20725-24" transform="translate(7.17006,-22.4409)">
						<title>Sheet.20725</title>
						<path d="M2.35 65.21 C1.05 65.21 0 66.21 0 67.45 L0 91.02 C0 92.26 1.05 93.26 2.35 93.26 L4.71 93.26 C6 93.26
									 7.06 92.26 7.06 91.02 L7.06 87.65 L35.29 87.65 L35.29 91.02 C35.29 92.26 36.34 93.26 37.64 93.26
									 L40 93.26 C41.3 93.26 42.35 92.26 42.35 91.02 L42.35 67.45 C42.35 66.21 41.3 65.21 40 65.21
									 L2.35 65.21 Z" class="st9"/>
					</g>
				</g>
			</g>
		</g>
	</g>
</svg>
